X:16
T:Ultrad
Z:Gwen, 2019-01-28, d'après l'enregistrement du 2017-06-04
C:François Champs
R:Reel
M:2/2
Q:1/2=90
K:Dmix
|: FAd^c d2dA | FAd^c dAGE | FAd^c dedB | =c2cA GEEE :|
|: FDD/D/D FDGD | FDD/D/D FDFA | d2ed dcAB | c2cA GEEE :|

